_includes/icons/ios-rocket.svg

<svg fill="#666" height="50" viewBox="0 0 50 50" width="50" xmlns="http://www.w3.org/2000/svg"><path d="m49.03125.96875-1.0625.03125s-7.351562.097656-14.4375 3.625c-2.277344 1.136719-4.566406 2.695313-6.625 4.75-2.535156 2.535156-6.113281 6.695313-9.375 10.625h-8.53125c-.03125 0-.0625 0-.09375 0-.269531.027344-.519531.160156-.6875.375l-5 6c-.210937.265625-.277344.621094-.167969.941406.105469.320313.371094.566407.699219.652344l6.09375 1.53125c-.046875.058594-.34375.4375-.34375.4375l-.125.125-.0625.1875s-.085937.351563-.0625.6875c.007813.125.03125.289063.0625.4375l-2.15625 3.625s-.097656.195313-.125.3125c-.027344.117188-.035156.261719-.03125.40625.007813.289063.078125.613281.25 1 .34375.773438 1.078125 1.796875 2.65625 3.375 1.578125 1.574219 2.597656 2.3125 3.375 2.65625.386719.171875.710938.242188 1 .25.144531.003906.289063-.003906.40625-.03125.117188-.027344.3125-.125.3125-.125l3.65625-2.15625c.136719.027344.292969.054688.40625.0625.335938.023438.6875-.0625.6875-.0625l.1875-.0625.15625-.125s.355469-.273437.40625-.3125l1.53125 6.0625c.085938.328125.332031.59375.652344.699219.320312.109375.675781.042969.941406-.167969l6-5c.238281-.191406.375-.476562.375-.78125v-8.5625c3.957031-3.289062 8.144531-6.863281 10.625-9.34375 2.046875-2.050781 3.582031-4.34375 4.71875-6.625 3.511719-7.074219 3.65625-14.4375 3.65625-14.4375zm-2.15625 2.15625c-.082031 1.503906-.476562 6.75-3.3125 12.46875-1.054687 2.121094-2.46875 4.21875-4.34375 6.09375-2.4375 2.4375-6.726562 6.09375-10.71875 9.40625-.082031.050781-.15625.113281-.21875.1875-4.675781 3.875-8.894531 7.230469-9.15625 7.4375-.117187-.011719-.300781-.023437-.625-.15625-.746094-.304687-2.054687-1.085937-4-3.03125-1.945312-1.945312-2.757812-3.285156-3.0625-4.03125-.132812-.324219-.144531-.507812-.15625-.625.207031-.261719 3.515625-4.433594 7.375-9.09375.105469-.085937.1875-.191406.25-.3125 3.277344-3.953125 6.910156-8.191406 9.40625-10.6875 1.882813-1.882812 3.976563-3.285156 6.09375-4.34375 5.726563-2.847656 10.96875-3.234375 12.46875-3.3125zm-12.875 7.875c-2.75 0-5 2.25-5 5s2.25 5 5 5 5-2.25 5-5-2.25-5-5-5zm0 2c1.667969 0 3 1.332031 3 3s-1.332031 3-3 3-3-1.332031-3-3 1.332031-3 3-3zm-24.53125 9h6.40625c-1.917969 2.339844-3.496094 4.328125-4.65625 5.78125l-5.4375-1.375zm.84375 11.59375c.570313.914063 1.40625 2 2.75 3.34375 1.339844 1.339844 2.429688 2.179688 3.34375 2.75l-2.15625 1.28125c-.03125-.007812-.027344-.003906-.15625-.0625-.410156-.179687-1.304687-.746094-2.78125-2.21875-1.472656-1.476562-2.039062-2.371094-2.21875-2.78125-.058594-.128906-.054687-.125-.0625-.15625zm17.6875.53125v6.40625l-4.40625 3.6875-1.375-5.40625c1.449219-1.160156 3.417969-2.742187 5.78125-4.6875zm-21.59375 4.09375c-1.632812 1.253906-3.109375 1.414063-4.4375 2.71875-.664062.652344-1.191406 1.578125-1.5 2.84375s-.4375 2.898438-.4375 5.1875v1h1c4.59375 0 6.839844-.726562 8.1875-2.09375 1.347656-1.367187 1.570313-2.890625 2.59375-4.28125l-1.625-1.1875c-1.296875 1.765625-1.585937 3.230469-2.40625 4.0625-.722656.734375-2.332031 1.273438-5.65625 1.40625.050781-1.453125.121094-2.847656.3125-3.625.25-1.011719.554688-1.5.9375-1.875.761719-.75 2.253906-1.085937 4.21875-2.59375zm7.6875 2.84375-.09375.0625v-.03125s.054688-.015625.09375-.03125z"/></svg>

<svg xmlns="http://www.w3.org/2000/svg" viewBox="0 0 50 50" width="50" height="50" fill="#666"><path d="M 49.03125 0.96875 L 47.96875 1 C 47.96875 1 40.617188 1.097656 33.53125 4.625 C 31.253906 5.761719 28.964844 7.320313 26.90625 9.375 C 24.371094 11.910156 20.792969 16.070313 17.53125 20 L 9 20 C 8.96875 20 8.9375 20 8.90625 20 C 8.636719 20.027344 8.386719 20.160156 8.21875 20.375 L 3.21875 26.375 C 3.007813 26.640625 2.941406 26.996094 3.050781 27.316406 C 3.15625 27.636719 3.421875 27.882813 3.75 27.96875 L 9.84375 29.5 C 9.796875 29.558594 9.5 29.9375 9.5 29.9375 L 9.375 30.0625 L 9.3125 30.25 C 9.3125 30.25 9.226563 30.601563 9.25 30.9375 C 9.257813 31.0625 9.28125 31.226563 9.3125 31.375 L 7.15625 35 C 7.15625 35 7.058594 35.195313 7.03125 35.3125 C 7.003906 35.429688 6.996094 35.574219 7 35.71875 C 7.007813 36.007813 7.078125 36.332031 7.25 36.71875 C 7.59375 37.492188 8.328125 38.515625 9.90625 40.09375 C 11.484375 41.667969 12.503906 42.40625 13.28125 42.75 C 13.667969 42.921875 13.992188 42.992188 14.28125 43 C 14.425781 43.003906 14.570313 42.996094 14.6875 42.96875 C 14.804688 42.941406 15 42.84375 15 42.84375 L 18.65625 40.6875 C 18.792969 40.714844 18.949219 40.742188 19.0625 40.75 C 19.398438 40.773438 19.75 40.6875 19.75 40.6875 L 19.9375 40.625 L 20.09375 40.5 C 20.09375 40.5 20.449219 40.226563 20.5 40.1875 L 22.03125 46.25 C 22.117188 46.578125 22.363281 46.84375 22.683594 46.949219 C 23.003906 47.058594 23.359375 46.992188 23.625 46.78125 L 29.625 41.78125 C 29.863281 41.589844 30 41.304688 30 41 L 30 32.4375 C 33.957031 29.148438 38.144531 25.574219 40.625 23.09375 C 42.671875 21.042969 44.207031 18.75 45.34375 16.46875 C 48.855469 9.394531 49 2.03125 49 2.03125 Z M 46.875 3.125 C 46.792969 4.628906 46.398438 9.875 43.5625 15.59375 C 42.507813 17.714844 41.09375 19.8125 39.21875 21.6875 C 36.78125 24.125 32.492188 27.78125 28.5 31.09375 C 28.417969 31.144531 28.34375 31.207031 28.28125 31.28125 C 23.605469 35.15625 19.386719 38.511719 19.125 38.71875 C 19.007813 38.707031 18.824219 38.695313 18.5 38.5625 C 17.753906 38.257813 16.445313 37.476563 14.5 35.53125 C 12.554688 33.585938 11.742188 32.246094 11.4375 31.5 C 11.304688 31.175781 11.292969 30.992188 11.28125 30.875 C 11.488281 30.613281 14.796875 26.441406 18.65625 21.78125 C 18.761719 21.695313 18.84375 21.589844 18.90625 21.46875 C 22.183594 17.515625 25.816406 13.277344 28.3125 10.78125 C 30.195313 8.898438 32.289063 7.496094 34.40625 6.4375 C 40.132813 3.589844 45.375 3.203125 46.875 3.125 Z M 34 11 C 31.25 11 29 13.25 29 16 C 29 18.75 31.25 21 34 21 C 36.75 21 39 18.75 39 16 C 39 13.25 36.75 11 34 11 Z M 34 13 C 35.667969 13 37 14.332031 37 16 C 37 17.667969 35.667969 19 34 19 C 32.332031 19 31 17.667969 31 16 C 31 14.332031 32.332031 13 34 13 Z M 9.46875 22 L 15.875 22 C 13.957031 24.339844 12.378906 26.328125 11.21875 27.78125 L 5.78125 26.40625 Z M 10.3125 33.59375 C 10.882813 34.507813 11.71875 35.59375 13.0625 36.9375 C 14.402344 38.277344 15.492188 39.117188 16.40625 39.6875 L 14.25 40.96875 C 14.21875 40.960938 14.222656 40.964844 14.09375 40.90625 C 13.683594 40.726563 12.789063 40.160156 11.3125 38.6875 C 9.839844 37.210938 9.273438 36.316406 9.09375 35.90625 C 9.035156 35.777344 9.039063 35.78125 9.03125 35.75 Z M 28 34.125 L 28 40.53125 L 23.59375 44.21875 L 22.21875 38.8125 C 23.667969 37.652344 25.636719 36.070313 28 34.125 Z M 6.40625 38.21875 C 4.773438 39.472656 3.296875 39.632813 1.96875 40.9375 C 1.304688 41.589844 0.777344 42.515625 0.46875 43.78125 C 0.160156 45.046875 0.03125 46.679688 0.03125 48.96875 L 0.03125 49.96875 L 1.03125 49.96875 C 5.625 49.96875 7.871094 49.242188 9.21875 47.875 C 10.566406 46.507813 10.789063 44.984375 11.8125 43.59375 L 10.1875 42.40625 C 8.890625 44.171875 8.601563 45.636719 7.78125 46.46875 C 7.058594 47.203125 5.449219 47.742188 2.125 47.875 C 2.175781 46.421875 2.246094 45.027344 2.4375 44.25 C 2.6875 43.238281 2.992188 42.75 3.375 42.375 C 4.136719 41.625 5.628906 41.289063 7.59375 39.78125 Z M 14.09375 41.0625 L 14 41.125 L 14 41.09375 C 14 41.09375 14.054688 41.078125 14.09375 41.0625 Z"/></svg>
